actions/scalable/dialog-selectors.svg

<?xml version="1.0" encoding="UTF-8" standalone="no"?>
<svg
   width="48"
   height="48"
   viewBox="0 0 48 48"
   fill="none"
   version="1.1"
   id="svg6"
   sodipodi:docname="verb.svg"
   inkscape:version="1.3 (0e150ed6c4, 2023-07-21)"
   xmlns:inkscape="http://www.inkscape.org/namespaces/inkscape"
   xmlns:sodipodi="http://sodipodi.sourceforge.net/DTD/sodipodi-0.dtd"
   xmlns="http://www.w3.org/2000/svg"
   xmlns:svg="http://www.w3.org/2000/svg">
  <sodipodi:namedview
     id="namedview6"
     pagecolor="#ffffff"
     bordercolor="#000000"
     borderopacity="0.25"
     inkscape:showpageshadow="2"
     inkscape:pageopacity="0.0"
     inkscape:pagecheckerboard="0"
     inkscape:deskcolor="#d1d1d1"
     inkscape:zoom="11.85877"
     inkscape:cx="18.087879"
     inkscape:cy="22.725797"
     inkscape:window-width="1550"
     inkscape:window-height="1005"
     inkscape:window-x="184"
     inkscape:window-y="36"
     inkscape:window-maximized="1"
     inkscape:current-layer="svg6" />
  <rect
     opacity="0.4"
     x="4"
     y="2"
     width="40"
     height="44"
     rx="6"
     fill="url(#paint0_linear_54_96)"
     id="rect1" />
  <path
     d="m 18.6667,13 c 0,-0.5523 -0.4488,-1.0039 -1.0004,-0.9781 -1.9442,0.0912 -3.109,0.4673 -4.221,1.1443 -1.28,0.7751 -1.8897,2.0107 -1.8897,3.6676 V 20 c 0,0.9884 -0.4409,1.6782 -1.2214,2.1671 C 9.77563,22.5141 9.64017,22.7666 8.99719,22.879 8.45316,22.9741 8,23.3917 8,23.944 v 1.0009 c 0,0.5523 0.45021,0.9903 1.00005,1.0422 2.23975,0.2114 2.55555,1.2137 2.55555,2.9569 v 2.7236 c 0,1.8151 0.5813,3.1911 1.7777,4 1.0491,0.7107 2.2365,1.0924 4.3254,1.1942 0.5547,0.027 1.008,-0.4254 1.008,-0.9807 v -0.8966 c 0,-0.5462 -0.4408,-0.9779 -0.9817,-1.0536 C 16.9284,33.825 16.4389,33.6022 16,33.2782 15.3956,32.832 15.1111,32.2044 15.1111,31.3333 v -2.9991 c 0,-2.1055 -3.679983,-2.028952 -3.6661,-3.7614 -0.0634,-0.0096 -0.1117,-0.064 -0.1117,-0.1282 v 0 c 0,-0.0635 0.0475,-0.1176 0.1101,-0.1279 0.103396,-1.720324 3.6677,-1.7322 3.6677,-3.8171 v -2.944 c 0,-0.8712 0.2845,-1.4543 0.8889,-1.888 0.4502,-0.3266 0.947,-0.5637 1.7099,-0.6882 0.5299,-0.0865 0.9568,-0.5148 0.9568,-1.0518 z m 11.667,-0.9781 C 29.7821,11.9961 29.3333,12.4477 29.3333,13 v 0.9276 c 0,0.537 0.4269,0.9653 0.9568,1.0518 0.7629,0.1245 1.2597,0.3616 1.7099,0.6882 0.6044,0.4337 0.8889,1.0168 0.8889,1.888 v 2.944 c 0,2.0849 3.53442,1.142907 3.6677,3.8171 0.0626,0.0103 0.1101,0.0644 0.1101,0.1279 v 0 c 0,0.0642 -0.0483,0.1186 -0.1117,0.1282 -0.294187,2.178171 -3.6661,1.6559 -3.6661,3.7614 v 2.9991 c 0,0.8711 -0.2845,1.4987 -0.8889,1.9449 -0.4389,0.324 -0.9284,0.5468 -1.685,0.6527 -0.5409,0.0757 -0.9817,0.5074 -0.9817,1.0536 v 0.8966 c 0,0.5553 0.4533,1.0077 1.008,0.9807 2.0889,-0.1018 3.2763,-0.4835 4.3254,-1.1942 1.1964,-0.8089 1.7777,-2.1849 1.7777,-4 V 28.944 c 0,-1.7432 0.3158,-2.7455 2.5556,-2.9569 0.5498,-0.0519 1,-0.4899 1,-1.0422 V 23.944 C 40,23.3917 39.5468,22.9741 39.0028,22.879 38.36,22.7666 38.2248,22.5141 37.6676,22.1671 36.8853,21.6782 36.4444,20.9884 36.4444,20 v -3.1662 c 0,-1.6569 -0.6097,-2.8925 -1.888,-3.6676 -1.1135,-0.677 -2.2785,-1.0531 -4.2227,-1.1443 z"
     fill="url(#paint1_linear_54_96)"
     stroke="url(#paint2_linear_54_96)"
     id="path1"
     sodipodi:nodetypes="sccsscssscssccssccsscsscssccsscssccsscsscsscsssccsssssccsscc" />
  <defs
     id="defs6">
    <linearGradient
       id="paint0_linear_54_96"
       x1="36.7612"
       y1="2"
       x2="0.202452"
       y2="42.5789"
       gradientUnits="userSpaceOnUse">
      <stop
         stop-color="#DE00C0"
         id="stop1" />
      <stop
         offset="1"
         stop-color="#8720FF"
         id="stop2" />
    </linearGradient>
    <linearGradient
       id="paint1_linear_54_96"
       x1="34.209"
       y1="12"
       x2="15.3653"
       y2="41.5809"
       gradientUnits="userSpaceOnUse">
      <stop
         stop-color="#DE00C0"
         id="stop3" />
      <stop
         offset="1"
         stop-color="#8720FF"
         id="stop4" />
    </linearGradient>
    <linearGradient
       id="paint2_linear_54_96"
       x1="34.209"
       y1="12"
       x2="15.3653"
       y2="41.5809"
       gradientUnits="userSpaceOnUse">
      <stop
         stop-color="#DE00C0"
         id="stop5" />
      <stop
         offset="1"
         stop-color="#8720FF"
         id="stop6" />
    </linearGradient>
  </defs>
</svg>

<svg width="48" height="48" viewBox="0 0 48 48" fill="none" xmlns="http://www.w3.org/2000/svg">
<rect opacity="0.4" x="4" y="2" width="40" height="44" rx="6" fill="url(#paint0_linear_54_96)"/>
<path d="M18.6667 13C18.6667 12.4477 18.2179 11.9961 17.6663 12.0219C15.7221 12.1131 14.5573 12.4892 13.4453 13.1662C12.1653 13.9413 11.5556 15.1769 11.5556 16.8338V20C11.5556 20.9884 11.1147 21.6782 10.3342 22.1671C9.77563 22.5141 9.64017 22.7666 8.99719 22.879C8.45316 22.9741 8 23.3917 8 23.944V24.9449C8 25.4972 8.45021 25.9352 9.00005 25.9871C11.2398 26.1985 11.5556 27.2008 11.5556 28.944V31.6676C11.5556 33.4827 12.1369 34.8587 13.3333 35.6676C14.3824 36.3783 15.5698 36.76 17.6587 36.8618C18.2134 36.8888 18.6667 36.4364 18.6667 35.8811V34.9845C18.6667 34.4383 18.2259 34.0066 17.685 33.9309C16.9284 33.825 16.4389 33.6022 16 33.2782C15.3956 32.832 15.1111 32.2044 15.1111 31.3333V28.3342C15.1111 26.2287 14.0738 24.9737 11.445 24.5728C11.3816 24.5632 11.3333 24.5088 11.3333 24.4446V24.4446C11.3333 24.3811 11.3808 24.327 11.4434 24.3167C14.0734 23.8824 15.1111 22.5845 15.1111 20.4996V17.5556C15.1111 16.6844 15.3956 16.1013 16 15.6676C16.4502 15.341 16.947 15.1039 17.7099 14.9794C18.2398 14.8929 18.6667 14.4646 18.6667 13.9276V13ZM30.3337 12.0219C29.7821 11.9961 29.3333 12.4477 29.3333 13V13.9276C29.3333 14.4646 29.7602 14.8929 30.2901 14.9794C31.053 15.1039 31.5498 15.341 32 15.6676C32.6044 16.1013 32.8889 16.6844 32.8889 17.5556V20.4996C32.8889 22.5845 33.9266 23.8824 36.5566 24.3167C36.6192 24.327 36.6667 24.3811 36.6667 24.4446V24.4446C36.6667 24.5088 36.6184 24.5632 36.555 24.5728C33.9262 24.9737 32.8889 26.2287 32.8889 28.3342V31.3333C32.8889 32.2044 32.6044 32.832 32 33.2782C31.5611 33.6022 31.0716 33.825 30.315 33.9309C29.7741 34.0066 29.3333 34.4383 29.3333 34.9845V35.8811C29.3333 36.4364 29.7866 36.8888 30.3413 36.8618C32.4302 36.76 33.6176 36.3783 34.6667 35.6676C35.8631 34.8587 36.4444 33.4827 36.4444 31.6676V28.944C36.4444 27.2008 36.7602 26.1985 39 25.9871C39.5498 25.9352 40 25.4972 40 24.9449V23.944C40 23.3917 39.5468 22.9741 39.0028 22.879C38.36 22.7666 38.2248 22.5141 37.6676 22.1671C36.8853 21.6782 36.4444 20.9884 36.4444 20V16.8338C36.4444 15.1769 35.8347 13.9413 34.5564 13.1662C33.4429 12.4892 32.2779 12.1131 30.3337 12.0219Z" fill="url(#paint1_linear_54_96)" stroke="url(#paint2_linear_54_96)"/>
<defs>
<linearGradient id="paint0_linear_54_96" x1="36.7612" y1="2" x2="0.202452" y2="42.5789" gradientUnits="userSpaceOnUse">
<stop stop-color="#DE00C0"/>
<stop offset="1" stop-color="#8720FF"/>
</linearGradient>
<linearGradient id="paint1_linear_54_96" x1="34.209" y1="12" x2="15.3653" y2="41.5809" gradientUnits="userSpaceOnUse">
<stop stop-color="#DE00C0"/>
<stop offset="1" stop-color="#8720FF"/>
</linearGradient>
<linearGradient id="paint2_linear_54_96" x1="34.209" y1="12" x2="15.3653" y2="41.5809" gradientUnits="userSpaceOnUse">
<stop stop-color="#DE00C0"/>
<stop offset="1" stop-color="#8720FF"/>
</linearGradient>
</defs>
</svg>
